X:262
L:1/8
Q:1/8=128
M:4/4
K:Cmin
|: E>D | C2 G>A G2 FG | A>G F<E D2 E>D | C2 c>d e2 dc | =B>c d<B G2 F>G | A>G F<E D2 E>F | 
 G>E D<C =B2 cd | e>c d>=B c>G F<G | E2 D>C C2 G2 | c2 c>d e2 d>c | g>f e<f d2 c>=B | 
 c>G c<d e2 d>c | g>f e/g/f/e/ d2 F>G | A>G F<E D2 E>F | G>E D<C =B2 c>d | e<c d>=B c>G F<G | 
 E2 D>C C2 :|

